X: 2347
T: MONTGOMERIE'S HORNPIPE
%R: hornpipe, reel
B: James Kerr "Merry Melodies" v.2 p.38 #347
Z: 2016 John Chambers <jc:trillian.mit.edu>
M: C
L: 1/8
K: D
uA,2 |:\
vD2uD2 vD>vEuF>uD | A2A2 A>Bc>A |\
[1,3 d2d>f e>dc>B | A>^GA>B A>=GF>E :|\
[2,4 B>dc>B A>GF>E | D2d2D2 :|
|:\
ud>ue |\
f>ef>g f>ed>c | d>cd>e d>cB>A |\
[1,2 B>cd>c B2e>f | g>af>g e2 :|\
[2,4 B>cd>e f>ge>f | d2d2d2 :|
